X:47
T:Pelimannin Jaahyvaiset (Folk Muscian's Farewell)
M:3/4
L:1/4
Q:1/4=180
R:waltz
K:Gm
|: "D7" z D | "Gm" D2 G/2B/2 | d2 b | "Cm" a2 g | e2 c |
"D7" d ^c d | c2 A | d ^c d | B2 A | !
"Gm" D2 G/2B/2 | d2 b | "Cm" a2 g | e2 c |
"D7" d ^c d | A c B | "Gm" (G3 | G) d c | !
"G7" =B c d | f e>d | "Cm" e3 | c3 |
"F" F A c | e d>^c | "Bb" (d3 | "D7" d2) D | !
"Gm" D2 G/2B/2 | d2 b | "Cm" a2 g | e2 c |
"D7" d ^c d | A c B | "Gm" (G3 | "fine" G) :| !
|: "D7" B A | "Gm" G/2 z ^F/2 (G | G) A G | "Cm" (E3 | E) c B |
"D7" A/2 z ^G/2 (A | A) c A | "Gm" (B3 | B) B A | !
G/2 z ^F/2 (G | G) A G | "Cm" (E3 | E) F E |
"D7" D ^C/2D/2^F/2A/2 | c2 A | "Gm" (G3 | "D.C. al fine" G) :||
